packages/sources/icons/src/vitamix/money-pound-box-fill.svg

<svg width="16" height="16" viewBox="0 0 16 16" xmlns="http://www.w3.org/2000/svg"><path fill-rule="evenodd" clip-rule="evenodd" d="M14 2H2.00004C1.63185 2 1.33337 2.29848 1.33337 2.66667V13.3333C1.33337 13.7015 1.63185 14 2.00004 14H14C14.3682 14 14.6667 13.7015 14.6667 13.3333V2.66667C14.6667 2.29848 14.3682 2 14 2ZM6.00004 10V8.66667H5.33337V7.33333H6.00004V6.66667C6.00104 5.5501 6.79272 4.59063 7.88879 4.37762C8.98485 4.16462 10.0783 4.75774 10.4974 5.79267L9.17337 6.12333C8.93274 5.7508 8.4755 5.58126 8.05017 5.70686C7.62484 5.83245 7.33304 6.22318 7.33337 6.66667V7.33333H9.33337V8.66667H7.33337V10H10.6667V11.3333H5.33337V10H6.00004Z"/></svg>

<svg width="16" height="16" xmlns="http://www.w3.org/2000/svg"><path fill-rule="evenodd" clip-rule="evenodd" d="M14 2H2a.667.667 0 0 0-.667.667v10.666c0 .368.299.667.667.667h12a.667.667 0 0 0 .667-.667V2.667A.667.667 0 0 0 14 2Zm-8 8V8.667h-.667V7.333H6v-.666a2.334 2.334 0 0 1 4.497-.874l-1.324.33a1 1 0 0 0-1.84.544v.666h2v1.334h-2V10h3.334v1.333H5.333V10H6Z"/></svg>
